X: 183
T:Cantate Domino canticum novum
N: Derived from Jos1506-Cantate_Domino_canticum_novum.krn
C: Josquin des Prez
%%abc-version 2.0
%%abcx-abcm2ps-target-version 5.9.1 (29 Sep 2008)
%%abc-creator hum2abc beta
%%abcx-conversion-date 2019/02/12 16:15:46
%%abc-edited-by Jesse Rodin
%%abc-edited-by Will Watson 01/07/2011
%%abcx-initial-encoding-date 2011/07/01/
%%humdrum-veritas 3871129322
%%humdrum-veritas-data 1897208733
%%linebreak <none>
%%barnumbers 0
L: 1/4
M: 2/1
Q: 1/2=120
V: 1 clef=treble
V: 2 clef=treble
V: 3 clef=treble-8
V: 4 clef=treble-8
V: 5 clef=bass
K: F
[V:1] G8 | 
[V:2] G8 | 
[V:3] G8 | 
[V:4] z8 | 
[V:5] z8 | 
[V:1] B4A4 | 
[V:2] G4F4 | 
[V:3] G4d4 | 
[V:4] z8 | 
[V:5] z8 | 
[V:1] B4c4 | 
[V:2] G4E4 | 
[V:3] G4A4 | 
[V:4] z8 | 
[V:5] z8 | 
[V:1] d6cB | 
[V:2] D4z2D2 | 
[V:3] B6AG | 
[V:4] z8 | 
[V:5] z8 | 
[V:1] A2B2c2d2- | 
[V:2] F3GA2B2- | 
[V:3] F2B2A2G2 | 
[V:4] z8 | 
[V:5] z8 | 
[V:1] d2cBA4 | 
[V:2] BAG4^F2 | 
[V:3] B3cd4 | 
[V:4] z8 | 
[V:5] z8 | 
[V:1] G8 | 
[V:2] G8 | 
[V:3] G8 | 
[V:4] G8 | 
[V:5] G,8 | 
[V:1] z8 | 
[V:2] z8 | 
[V:3] z8 | 
[V:4] B4A4 | 
[V:5] G,4F,4 | 
[V:1] z8 | 
[V:2] z8 | 
[V:3] z8 | 
[V:4] B4c4 | 
[V:5] G,4E,4 | 
[V:1] z8 | 
[V:2] z8 | 
[V:3] z8 | 
[V:4] d4z2D2 | 
[V:5] D,6F,2- | 
[V:1] z8 | 
[V:2] z8 | 
[V:3] z8 | 
[V:4] F3GA2B2 | 
[V:5] F,2E,D,C,2D,2- | 
[V:1] z8 | 
[V:2] z8 | 
[V:3] z8 | 
[V:4] A2G4^F2 | 
[V:5] D,C,B,,2A,,4 | 
[V:1] d8 | 
[V:2] B8 | 
[V:3] G8 | 
[V:4] G4z2D2 | 
[V:5] G,,4z2G,,2 | 
[V:1] B4B4 | 
[V:2] B4G2B2- | 
[V:3] G4G4 | 
[V:4] D4D4 | 
[V:5] G,,4G,,4 | 
[V:1] c4c4 | 
[V:2] B2AGA4 | 
[V:3] G4c4 | 
[V:4] E4E4 | 
[V:5] C,4C,4 | 
[V:1] d8 | 
[V:2] B8 | 
[V:3] B4B4 | 
[V:4] D4z2d2- | 
[V:5] G,,4z4 | 
[V:1] z4B4 | 
[V:2] z4G4 | 
[V:3] B3cd2e2 | 
[V:4] dcBAB4 | 
[V:5] G,4G,2G,2 | 
[V:1] c2c2c2c2 | 
[V:2] A2c3BAG | 
[V:3] f2edc4 | 
[V:4] A4F2A2- | 
[V:5] F,4F,4 | 
[V:1] d3cB2A2 | 
[V:2] F4G2A2 | 
[V:3] z2f2B2d2- | 
[V:4] A2B2G2F2 | 
[V:5] D,4E,2F,2 | 
[V:1] B4c4 | 
[V:2] F2EDE4 | 
[V:3] dcB4A2 | 
[V:4] D2F4E2 | 
[V:5] B,,2D,2C,4 | 
[V:1] d8 | 
[V:2] D4z4 | 
[V:3] B4z2d2 | 
[V:4] F8 | 
[V:5] B,,8 | 
[V:1] z2G2G2G2 | 
[V:2] E4E2E2 | 
[V:3] c2c2c4 | 
[V:4] z4z2G2 | 
[V:5] z2C,2C,2C,2 | 
[V:1] G4B4 | 
[V:2] E4D4 | 
[V:3] G4z2d2- | 
[V:4] G2G2G4 | 
[V:5] C,4G,,4 | 
[V:1] z2A4A2 | 
[V:2] F6F2 | 
[V:3] d2d2d4 | 
[V:4] D4z2A2- | 
[V:5] z2D,4D,2 | 
[V:1] A4c4 | 
[V:2] F4E4 | 
[V:3] A4z2c2- | 
[V:4] A2A2A2GF | 
[V:5] D,4A,,4 | 
[V:1] c4d2B2- | 
[V:2] z2E2G2G2 | 
[V:3] cBG3ABc | 
[V:4] E4D2d2- | 
[V:5] C,4B,,2G,,2 | 
[V:1] BAG4^F2 | 
[V:2] F2E2z2A2 | 
[V:3] d4d4 | 
[V:4] dcB2A4 | 
[V:5] B,,3C,D,4 | 
[V:1] G8 | 
[V:2] B4G2B2- | 
[V:3] d4c2d2- | 
[V:4] G4z2G2 | 
[V:5] G,,4z2G,,2- | 
[V:1] z4A4 | 
[V:2] B2AGF4 | 
[V:3] d2cBA4 | 
[V:4] D3EF4 | 
[V:5] G,,A,,B,,C,D,2D,2 | 
[V:1] B4A2B2- | 
[V:2] G4F2G2- | 
[V:3] G2d2c2d2- | 
[V:4] D4z2G2 | 
[V:5] G,,4z2G,,2- | 
[V:1] B2AGF4 | 
[V:2] G2FED4 | 
[V:3] d2cBA4 | 
[V:4] D3EF4 | 
[V:5] G,,A,,B,,C,D,2D,2 | 
[V:1] G4F2G2- | 
[V:2] z8 | 
[V:3] G2d2c2d2- | 
[V:4] B4A2B2 | 
[V:5] G,,4z2G,,2- | 
[V:1] G2FED4 | 
[V:2] G4F3G | 
[V:3] d2cBA3B | 
[V:4] G4z2A2- | 
[V:5] G,,A,,B,,C,D,4 | 
[V:1] z8 | 
[V:2] A2B2A2B2- | 
[V:3] c2d3cd2 | 
[V:4] A2G2F2D2 | 
[V:5] z8 | 
[V:1] z8 | 
[V:2] BAG4^F2 | 
[V:3] B2c2A4 | 
[V:4] G2C2D4 | 
[V:5] z8 | 
[V:1] d8 | 
[V:2] G8- | 
[V:3] G8 | 
[V:4] z4D4 | 
[V:5] G,,8 | 
[V:1] d4c4 | 
[V:2] G8 | 
[V:3] z4G4 | 
[V:4] D4E4 | 
[V:5] B,,4C,4 | 
[V:1] B2B4AG | 
[V:2] z8 | 
[V:3] B4c4 | 
[V:4] F4G4 | 
[V:5] D,4E,4 | 
[V:1] F4G4 | 
[V:2] z8 | 
[V:3] d4e4 | 
[V:4] A4G4 | 
[V:5] D,4z2G,2- | 
[V:1] DEFGA2B2 | 
[V:2] z8 | 
[V:3] d4z2d2- | 
[V:4] z2B2A2G2 | 
[V:5] G,2F,E,F,2G,2 | 
[V:1] A8 | 
[V:2] z8 | 
[V:3] d2cBc2d2 | 
[V:4] F4A3B | 
[V:5] D,4F,4 | 
[V:1] z8 | 
[V:2] z8 | 
[V:3] A4c3B | 
[V:4] c2BAG2A2- | 
[V:5] F,4E,2F,2- | 
[V:1] z8 | 
[V:2] z4G4 | 
[V:3] A2GFG4 | 
[V:4] A2d4^c2 | 
[V:5] F,2E,D,E,4 | 
[V:1] z8 | 
[V:2] A3GF2E2- | 
[V:3] F3GA2B2- | 
[V:4] d4z4 | 
[V:5] D,3E,F,2G,2- | 
[V:1] z8 | 
[V:2] E2D4^C2 | 
[V:3] B2A4G2 | 
[V:4] z8 | 
[V:5] G,F,E,D,E,4 | 
[V:1] z4d4 | 
[V:2] D8 | 
[V:3] A4B4 | 
[V:4] z8 | 
[V:5] D,8 | 
[V:1] e2c2d2cB | 
[V:2] z2A2B4 | 
[V:3] A4z4 | 
[V:4] z8 | 
[V:5] z8 | 
[V:1] cBAGA4 | 
[V:2] A2G4F2 | 
[V:3] z4z2A2 | 
[V:4] z8 | 
[V:5] z8 | 
[V:1] G2d4^c2 | 
[V:2] GFEDE4 | 
[V:3] B4A2A2 | 
[V:4] z8 | 
[V:5] z8 | 
[V:1] d8 | 
[V:2] D8 | 
[V:3] D2G4^F2 | 
[V:4] z4A4 | 
[V:5] z8 | 
[V:1] z8 | 
[V:2] z8 | 
[V:3] G4z4 | 
[V:4] B4A4 | 
[V:5] z4D,4 | 
[V:1] z8 | 
[V:2] z8 | 
[V:3] z8 | 
[V:4] G2c2B2A2- | 
[V:5] E,4D,4 | 
[V:1] z2G2A2c2 | 
[V:2] z8 | 
[V:3] z8 | 
[V:4] A2G4^F2 | 
[V:5] C,2B,,2A,,4 | 
[V:1] B4d4- | 
[V:2] G8 | 
[V:3] B8 | 
[V:4] G4z2G2 | 
[V:5] G,,4z2G,,2 | 
[V:1] d2c2B2AG | 
[V:2] G4G4 | 
[V:3] d4d4 | 
[V:4] B4B4 | 
[V:5] G,,4G,,4 | 
[V:1] F3GA2G2- | 
[V:2] A3GF2E2 | 
[V:3] d4d2d2- | 
[V:4] A4A2B2- | 
[V:5] D,4D,2G,,2- | 
[V:1] GAB2A2G2- | 
[V:2] D2G2F2D2 | 
[V:3] d2d6 | 
[V:4] B2G2A2B2 | 
[V:5] G,,2G,,2D,2G,,2 | 
[V:1] G2F4E2 | 
[V:2] E2F2G4 | 
[V:3] c2c2c4 | 
[V:4] c2A2G4 | 
[V:5] C,2F,,2C,4 | 
[V:1] F4z4 | 
[V:2] A3G/F/EDG2- | 
[V:3] z2c4B2 | 
[V:4] F4z2G2 | 
[V:5] F,,4z4 | 
[V:1] z4G4 | 
[V:2] G2F4E2 | 
[V:3] c2A2G4 | 
[V:4] E2F2C4 | 
[V:5] z8 | 
[V:1] A4A2B2- | 
[V:2] F4z4 | 
[V:3] FGABc2d2- | 
[V:4] F4E2D2- | 
[V:5] D,4C,2B,,2 | 
[V:1] B2AGA4 | 
[V:2] z4z2F2 | 
[V:3] d2cBA4 | 
[V:4] D2G4^F2 | 
[V:5] G,,4D,4 | 
[V:1] D4z2D2 | 
[V:2] B4A2B2 | 
[V:3] G4z4 | 
[V:4] G4z4 | 
[V:5] z2G,2F,2G,2- | 
[V:1] E4F4 | 
[V:2] B2c2A2d2- | 
[V:3] z8 | 
[V:4] z2c4BA | 
[V:5] G,2A,4G,F, | 
[V:1] G4F2G2- | 
[V:2] d2^c2d4 | 
[V:3] z4d4 | 
[V:4] G4A2B2- | 
[V:5] E,4D,2G,2- | 
[V:1] GAB4AG | 
[V:2] z8 | 
[V:3] e2d4c2 | 
[V:4] BAGFG4 | 
[V:5] G,F,E,D,E,4 | 
[V:1] F2B4A2 | 
[V:2] z8 | 
[V:3] d2f4f2- | 
[V:4] A2B2c4 | 
[V:5] D,2B,,2F,4 | 
[V:1] B4z2B2 | 
[V:2] z8 | 
[V:3] fedcd4 | 
[V:4] B8 | 
[V:5] B,,4z2B,,2- | 
[V:1] B2B2A2B2- | 
[V:2] z8 | 
[V:3] d8 | 
[V:4] z4z2B2 | 
[V:5] B,,C,D,E,F,2G,2- | 
[V:1] B2AGF4 | 
[V:2] d4d2d2- | 
[V:3] z8 | 
[V:4] B2B2A2B2- | 
[V:5] G,F,G,2D,4 | 
[V:1] z2B2c2d2- | 
[V:2] d2cBA2B2- | 
[V:3] z8 | 
[V:4] B2AGF2B2- | 
[V:5] G,,4z4 | 
[V:1] d2cBA2B2- | 
[V:2] B2AGF2G2 | 
[V:3] G4A2G2- | 
[V:4] B2B2c2d2- | 
[V:5] z4z2G,,2 | 
[V:1] BAG4^F2 | 
[V:2] D2G2A4 | 
[V:3] GABcd4 | 
[V:4] dcB2A4 | 
[V:5] G,,2G,,2D,4 | 
[V:1] G4z2G2 | 
[V:2] B4A2B2- | 
[V:3] d8 | 
[V:4] G4z4 | 
[V:5] G,,2G,2F,2G,2- | 
[V:1] d4c4 | 
[V:2] BAG4^F2 | 
[V:3] B4c4 | 
[V:4] z8 | 
[V:5] G,A,B,2A,4 | 
[V:1] BABcd4 | 
[V:2] G8 | 
[V:3] d4B4 | 
[V:4] z4z2G2 | 
[V:5] G,4z4 | 
[V:1] z2G2A2G2 | 
[V:2] z4z2G2 | 
[V:3] c4z4 | 
[V:4] A2G2c4 | 
[V:5] C,4C,2C,2 | 
[V:1] c4A4 | 
[V:2] A2G2c4 | 
[V:3] z8 | 
[V:4] A2c3BAG | 
[V:5] C,4z2C,2 | 
[V:1] z8 | 
[V:2] A4z4 | 
[V:3] z2c2d2c2 | 
[V:4] F2E2A4 | 
[V:5] D,2C,2F,4 | 
[V:1] A4A2B2- | 
[V:2] z4z2F2- | 
[V:3] f4d4 | 
[V:4] z2A4d2- | 
[V:5] D,8 | 
[V:1] B2AGA2B2- | 
[V:2] F2EDE2F2- | 
[V:3] z8 | 
[V:4] d2cBc2d2- | 
[V:5] z8 | 
[V:1] B2A4G2 | 
[V:2] F2E4D2 | 
[V:3] z8 | 
[V:4] dcBAB4 | 
[V:5] z8 | 
[V:1] A8 | 
[V:2] E4z4 | 
[V:3] c3BA2G2 | 
[V:4] A8 | 
[V:5] A,,4A,,2E,2 | 
[V:1] z8 | 
[V:2] z8 | 
[V:3] F2G2A2B2- | 
[V:4] z8 | 
[V:5] D,2C,B,,C,2D,2- | 
[V:1] z8 | 
[V:2] z8 | 
[V:3] BAA4G2 | 
[V:4] z8 | 
[V:5] D,C,B,,A,,B,,4 | 
[V:1] c6c2 | 
[V:2] A6A2 | 
[V:3] A4c4- | 
[V:4] z4A4- | 
[V:5] A,,4z4 | 
[V:1] c4c4 | 
[V:2] A4A4 | 
[V:3] c2c2c4 | 
[V:4] A2A2A4 | 
[V:5] F,6E,2 | 
[V:1] A4z2A2- | 
[V:2] F4z2F2- | 
[V:3] c4A4 | 
[V:4] A4F4 | 
[V:5] F,4F,4 | 
[V:1] A2A2A2A2 | 
[V:2] F2F2F2F2 | 
[V:3] z2A4A2 | 
[V:4] z2F4F2 | 
[V:5] D,4z2D,2- | 
[V:1] A2A2F4 | 
[V:2] F2F2D4 | 
[V:3] A2A2A2A2 | 
[V:4] F2F2F4 | 
[V:5] D,2D,2D,2D,2 | 
[V:1] z4F4 | 
[V:2] z2A4B2- | 
[V:3] F2f3edc | 
[V:4] D8 | 
[V:5] D,2D,2B,,4 | 
[V:1] G4A4 | 
[V:2] BAG4F2 | 
[V:3] B2c2A4 | 
[V:4] E4D4 | 
[V:5] z8 | 
[V:1] B4G2A2- | 
[V:2] G2d2B2A2- | 
[V:3] G4d4- | 
[V:4] z2G2G2F2 | 
[V:5] z8 | 
[V:1] A2B4AG | 
[V:2] A2d4cB | 
[V:3] d2d2d4 | 
[V:4] A2G3FDE | 
[V:5] z2G,,3A,,B,,C, | 
[V:1] F2G4^F2 | 
[V:2] A2G2A4 | 
[V:3] d8 | 
[V:4] F2D2F3G/A/ | 
[V:5] D,2G,,2D,4 | 
[V:1] G8 | 
[V:2] G8 | 
[V:3] z4d4 | 
[V:4] B8- | 
[V:5] G,,4G,4- | 
[V:1] z8 | 
[V:2] z8 | 
[V:3] B4c4 | 
[V:4] B4G4 | 
[V:5] G,4E,4 | 
[V:1] z8 | 
[V:2] z8 | 
[V:3] d6e2 | 
[V:4] z8 | 
[V:5] F,2G,4F,E, | 
[V:1] z4z2G2- | 
[V:2] z8 | 
[V:3] f2d4^c2 | 
[V:4] z4G4 | 
[V:5] D,2F,2E,4 | 
[V:1] G2F2G2B2 | 
[V:2] z4z2G2 | 
[V:3] d4z2d2 | 
[V:4] A4G4 | 
[V:5] D,4z2G,,2 | 
[V:1] B4B4 | 
[V:2] G4G4 | 
[V:3] d4d4 | 
[V:4] D4D2D2 | 
[V:5] G,,4G,,4 | 
[V:1] c4c4 | 
[V:2] A4A4 | 
[V:3] c4c4 | 
[V:4] E4E4 | 
[V:5] C,4C,4 | 
[V:1] B4z2B2 | 
[V:2] G4z2G2 | 
[V:3] d6cB | 
[V:4] D8- | 
[V:5] G,,8- | 
[V:1] B4d4 | 
[V:2] G4B4 | 
[V:3] B8 | 
[V:4] D8 | 
[V:5] G,,8 | 
[V:1] c2d4cB | 
[V:2] A2B4AG | 
[V:3] z8 | 
[V:4] z8 | 
[V:5] z2G,,3A,,B,,C, | 
[V:1] A4B4 | 
[V:2] F4G4 | 
[V:3] z8 | 
[V:4] z4D3E | 
[V:5] D,4G,,4 | 
[V:1] A2B4AG | 
[V:2] z2d4cB | 
[V:3] z8 | 
[V:4] F2G3ABc | 
[V:5] z8 | 
[V:1] F3GABc2- | 
[V:2] A3Bc2F2- | 
[V:3] F8 | 
[V:4] d4c2A2 | 
[V:5] z8 | 
[V:1] cBB4A2 | 
[V:2] F2E2F4 | 
[V:3] G4F4 | 
[V:4] B4c4 | 
[V:5] z8 | 
[V:1] B4z4 | 
[V:2] z8 | 
[V:3] B3cd2c2- | 
[V:4] B4z4 | 
[V:5] B,,6A,,2 | 
[V:1] z8 | 
[V:2] z8 | 
[V:3] c2B4A2 | 
[V:4] z8 | 
[V:5] B,,4C,4 | 
[V:1] d8 | 
[V:2] F8 | 
[V:3] B3A/G/F4 | 
[V:4] B8 | 
[V:5] B,,8 | 
[V:1] B4c4 | 
[V:2] G4E4 | 
[V:3] z8 | 
[V:4] G4A4 | 
[V:5] z8 | 
[V:1] d6B2- | 
[V:2] D3EF2G2 | 
[V:3] G4F2B2- | 
[V:4] B4A2G2- | 
[V:5] G,,4D,2G,,2 | 
[V:1] B2AGA4 | 
[V:2] D2G4F2 | 
[V:3] Bcd6 | 
[V:4] G2FEF4 | 
[V:5] G,4D,4 | 
[V:1] G4F2G2- | 
[V:2] G4A2B2- | 
[V:3] d4d2d2 | 
[V:4] B4A2d2- | 
[V:5] G,,4z2G,,2 | 
[V:1] GAB4AG | 
[V:2] BAGFG4 | 
[V:3] d8- | 
[V:4] dcBAB4 | 
[V:5] G,,2G,,2G,,4 | 
[V:1] F8 ||  
[V:2] A8 ||  
[V:3] d8 ||  
[V:4] A8 ||  
[V:5] D,8 ||  
[V:1] [M:2/1]B8 | 
[V:2] [M:2/1]G8 | 
[V:3] [M:2/1]d8 | 
[V:4] [M:2/1]G8 | 
[V:5] [M:2/1]G,,8 | 
[V:1] B4B4 | 
[V:2] G4G4 | 
[V:3] d4d4- | 
[V:4] G4G4 | 
[V:5] G,,4G,,4 | 
[V:1] A6B2 | 
[V:2] F6G2 | 
[V:3] d2cBA2d2 | 
[V:4] A3GF2ED | 
[V:5] D,6C,B,, | 
[V:1] c2d4cB | 
[V:2] A2B4AG | 
[V:3] c2B2G2A2- | 
[V:4] E2G2D2E2 | 
[V:5] A,,2G,,2B,,2C,2 | 
[V:1] A2d4^c2 | 
[V:2] F2D2E4 | 
[V:3] A2B2A4 | 
[V:4] F4C4 | 
[V:5] D,4A,,4 | 
[V:1] d4z2d2- | 
[V:2] D8 | 
[V:3] A4F4 | 
[V:4] F3GA2B2- | 
[V:5] D,8 | 
[V:1] d2d2c2B2- | 
[V:2] z4z2d2 | 
[V:3] z8 | 
[V:4] B2AGA2G2 | 
[V:5] G,,4z4 | 
[V:1] BAG4^F2 | 
[V:2] d4c4 | 
[V:3] z4z2c2 | 
[V:4] B4A4 | 
[V:5] z8 | 
[V:1] G4z4 | 
[V:2] B4A2B2- | 
[V:3] d4c2d2- | 
[V:4] G4z4 | 
[V:5] z8 | 
[V:1] z8 | 
[V:2] BAG4^F2 | 
[V:3] dcB2A4 | 
[V:4] z8 | 
[V:5] z8 | 
[V:1] B6B2 | 
[V:2] G8 | 
[V:3] G4d4- | 
[V:4] G6G2 | 
[V:5] z8 | 
[V:1] d4A2B2 | 
[V:2] z8 | 
[V:3] d2d2d4 | 
[V:4] G4D4 | 
[V:5] z8 | 
[V:1] A2GFG4 | 
[V:2] z8 | 
[V:3] A2c4c2 | 
[V:4] F4E4 | 
[V:5] z4G,4 | 
[V:1] F8 | 
[V:2] z4A4 | 
[V:3] d4z2A2 | 
[V:4] D4z2d2 | 
[V:5] A,4F,4 | 
[V:1] z4A4 | 
[V:2] G4A2F2- | 
[V:3] B4A4 | 
[V:4] d6d2 | 
[V:5] G,4D,4 | 
[V:1] A2A2E2A2- | 
[V:2] FGA2G2F2 | 
[V:3] F4G2A2 | 
[V:4] A4c4 | 
[V:5] z2D,2E,2F,2 | 
[V:1] A2G4^F2 | 
[V:2] D4A4 | 
[V:3] B2d6 | 
[V:4] B4A4 | 
[V:5] G,4D,4 | 
[V:1] G4D4 | 
[V:2] B4G4 | 
[V:3] d4B4 | 
[V:4] G4z2G2- | 
[V:5] G,,4z2G,,2 | 
[V:1] z8 | 
[V:2] z8 | 
[V:3] G4A4 | 
[V:4] G2E4F2- | 
[V:5] C,4A,,4 | 
[V:1] z8 | 
[V:2] z8 | 
[V:3] F4z4 | 
[V:4] F2D4D2- | 
[V:5] B,,4G,,4 | 
[V:1] z8 | 
[V:2] G4F3E | 
[V:3] z8 | 
[V:4] D2E2F4 | 
[V:5] G,,4A,,2B,,2- | 
[V:1] z8 | 
[V:2] D2C2F3G | 
[V:3] z8 | 
[V:4] G2A3GFE | 
[V:5] B,,2C,2D,3E, | 
[V:1] z8 | 
[V:2] A2B4AG | 
[V:3] z8 | 
[V:4] D2d4^c2 | 
[V:5] F,2G,2E,4 | 
[V:1] z8 | 
[V:2] F4D4 | 
[V:3] z2F2G2G2 | 
[V:4] d8 | 
[V:5] D,4z2B,,2 | 
[V:1] z8 | 
[V:2] z8 | 
[V:3] ABcAB2A2- | 
[V:4] z8 | 
[V:5] C,2C,2D,4 | 
[V:1] z8 | 
[V:2] z8 | 
[V:3] A2G4^F2 | 
[V:4] z8 | 
[V:5] C,2B,,2A,,4 | 
[V:1] d4d2B2- | 
[V:2] z4B4 | 
[V:3] G8 | 
[V:4] z8 | 
[V:5] G,,8 | 
[V:1] B2B2B2c2 | 
[V:2] B2G4G2 | 
[V:3] z8 | 
[V:4] z8 | 
[V:5] z8 | 
[V:1] d4z2G2 | 
[V:2] G2A2B4 | 
[V:3] z8 | 
[V:4] z8 | 
[V:5] z8 | 
[V:1] A2B2c2A2 | 
[V:2] z2D2E2F2 | 
[V:3] z8 | 
[V:4] z8 | 
[V:5] z4z2D,2 | 
[V:1] B2c2d2c2- | 
[V:2] G2A2B2A2- | 
[V:3] z8 | 
[V:4] z8 | 
[V:5] G,2F,2D,2F,2- | 
[V:1] cBAGA4 | 
[V:2] AG^FEF4 | 
[V:3] z8 | 
[V:4] z8 | 
[V:5] F,2G,2D,4 | 
[V:1] [M:3/1]G12 | 
[V:2] [M:3/1]G12 | 
[V:3] [M:3/1]d8d4 | 
[V:4] [M:3/1]z4G8 | 
[V:5] [M:3/1]G,,12 | 
[V:1] z12 | 
[V:2] z12 | 
[V:3] B4c8 | 
[V:4] G4E4F4- | 
[V:5] z12 | 
[V:1] z12 | 
[V:2] z12 | 
[V:3] d4z4d4 | 
[V:4] F4G4z4 | 
[V:5] z12 | 
[V:1] z12 | 
[V:2] z12 | 
[V:3] d4e4f4 | 
[V:4] G4G4A4 | 
[V:5] z12 | 
[V:1] z12 | 
[V:2] z12 | 
[V:3] f2e2d2c2B2A2 | 
[V:4] B6A2G4 | 
[V:5] z12 | 
[V:1] z12 | 
[V:2] z12 | 
[V:3] d8^c4 | 
[V:4] F4E8 | 
[V:5] z12 | 
[V:1] [M:2/1]z8 | 
[V:2] [M:2/1]z8 | 
[V:3] [M:2/1]d8 | 
[V:4] [M:2/1]D4z2D2 | 
[V:5] [M:2/1]G,,4G,,2G,,2 | 
[V:1] z8 | 
[V:2] z8 | 
[V:3] z8 | 
[V:4] D2D2F3G | 
[V:5] B,,3C,D,4 | 
[V:1] z8 | 
[V:2] z8 | 
[V:3] z8 | 
[V:4] A4z2A2 | 
[V:5] z2D,2_E,2D,2- | 
[V:1] z8 | 
[V:2] z8 | 
[V:3] z8 | 
[V:4] B2A4G2- | 
[V:5] D,2C,4B,,2 | 
[V:1] z4z2G2 | 
[V:2] z8 | 
[V:3] z8 | 
[V:4] G2^F2G4- | 
[V:5] A,,4G,,4- | 
[V:1] G2G2B3c | 
[V:2] z2G2G2G2 | 
[V:3] z4z2G2 | 
[V:4] G4z4 | 
[V:5] G,,4z4 | 
[V:1] d2G2z2B2 | 
[V:2] B3cd2G2 | 
[V:3] G2G2B3c | 
[V:4] z8 | 
[V:5] z8 | 
[V:1] A2G2F2G2 | 
[V:2] z2B2A2G2 | 
[V:3] d2G2z2G2 | 
[V:4] z8 | 
[V:5] z8 | 
[V:1] DEFGA2B2- | 
[V:2] F3EF2G2- | 
[V:3] Bcded2G2- | 
[V:4] z8 | 
[V:5] z8 | 
[V:1] BAd4^c2 | 
[V:2] GFEDE4 | 
[V:3] GAB2A2A2 | 
[V:4] z8 | 
[V:5] z8 | 
[V:1] d4z2d2 | 
[V:2] D2F2E2D2 | 
[V:3] D4z2G2 | 
[V:4] z2d2c2B2 | 
[V:5] z8 | 
[V:1] c2B2A2B2- | 
[V:2] F2G2A2F2 | 
[V:3] A2B2c2d2 | 
[V:4] A2G2F2D2 | 
[V:5] z8 | 
[V:1] BAG4^F2 | 
[V:2] G4z2A2 | 
[V:3] B2c2A4 | 
[V:4] E4D4 | 
[V:5] z8 | 
[V:1] G4z2d2 | 
[V:2] B4B2B2 | 
[V:3] G4z2G2 | 
[V:4] d6B2- | 
[V:5] G,,6G,2- | 
[V:1] d2d2c4 | 
[V:2] B4G4 | 
[V:3] d2d2e4 | 
[V:4] B2B2c4 | 
[V:5] G,2G,2C,4 | 
[V:1] A8 | 
[V:2] F8 | 
[V:3] d8 | 
[V:4] F8 | 
[V:5] D,4z2D,2 | 
[V:1] z8 | 
[V:2] z8 | 
[V:3] z8 | 
[V:4] z2A2B2A2 | 
[V:5] _E,2D,2B,,2C,2 | 
[V:1] z8 | 
[V:2] z8 | 
[V:3] z8 | 
[V:4] F2G2A2B2 | 
[V:5] D,2_E,2D,4 | 
[V:1] z8 | 
[V:2] z8 | 
[V:3] z8 | 
[V:4] A4z2A2 | 
[V:5] z2D,2D,2D,2 | 
[V:1] z8 | 
[V:2] z8 | 
[V:3] z8 | 
[V:4] A2A2c2G2- | 
[V:5] F,2C,3D,E,F, | 
[V:1] z8 | 
[V:2] z8 | 
[V:3] z8 | 
[V:4] GABcd4 | 
[V:5] G,4z2G,,2- | 
[V:1] z8 | 
[V:2] z8 | 
[V:3] z8 | 
[V:4] z2D3EFG | 
[V:5] G,,A,,B,,C,D,3E, | 
[V:1] z8 | 
[V:2] z8 | 
[V:3] z8 | 
[V:4] A2B4A2 | 
[V:5] F,2D,2C,4 | 
[V:1] B6B2 | 
[V:2] F6F2 | 
[V:3] d6d2 | 
[V:4] B4z2B2 | 
[V:5] B,,4z2B,,2 | 
[V:1] B4c4 | 
[V:2] F4G4 | 
[V:3] d4c4 | 
[V:4] B2B2G4 | 
[V:5] B,,2B,,2_E,4 | 
[V:1] d4B4- | 
[V:2] A4G4- | 
[V:3] A4d4- | 
[V:4] F4D4- | 
[V:5] D,4G,,4- | 
[V:1] B2B2c4 | 
[V:2] G2G2G4 | 
[V:3] d2d2c4 | 
[V:4] D2D2_E4 | 
[V:5] G,,2G,,2C,4 | 
[V:1] B4A4 | 
[V:2] G4E2F2- | 
[V:3] d2G4F2 | 
[V:4] D4z4 | 
[V:5] G,,4z4 | 
[V:1] B2d4c2 | 
[V:2] FGA4G2 | 
[V:3] D4E4 | 
[V:4] z4z2C2 | 
[V:5] z4z2G,2 | 
[V:1] d3cB2A2- | 
[V:2] A4z4 | 
[V:3] D4d4- | 
[V:4] F2D2F3G | 
[V:5] D,2F,2B,,C,D,E, | 
[V:1] A2G4^F2 | 
[V:2] z8 | 
[V:3] d4d4 | 
[V:4] A2B2A4 | 
[V:5] F,2G,2D,4 | 
[V:1] G8 | 
[V:2] z8 | 
[V:3] B4G4 | 
[V:4] G4E4 | 
[V:5] G,,4C,4 | 
[V:1] z8 | 
[V:2] z8 | 
[V:3] z2G2c4 | 
[V:4] D2G4^F2 | 
[V:5] B,,2C,2A,,4 | 
[V:1] z8 | 
[V:2] z8 | 
[V:3] B2G2A4 | 
[V:4] G4z4 | 
[V:5] G,,2G,4F,2 | 
[V:1] z8 | 
[V:2] z8 | 
[V:3] G2c2cBcd | 
[V:4] z8 | 
[V:5] G,2F,3G,A,F, | 
[V:1] z8 | 
[V:2] z8 | 
[V:3] _e2c4=B2 | 
[V:4] z8 | 
[V:5] G,2F,E,D,4 | 
[V:1] z4c4- | 
[V:2] z4G4 | 
[V:3] c4z2c2 | 
[V:4] z4E4 | 
[V:5] C,4C,4 | 
[V:1] c2c2A4 | 
[V:2] G2G2F4 | 
[V:3] c2c2c4 | 
[V:4] E2E2A4 | 
[V:5] C,2C,2F,4 | 
[V:1] B3cd4- | 
[V:2] D4F4 | 
[V:3] B4B4 | 
[V:4] F4F4 | 
[V:5] B,,4B,,4 | 
[V:1] d2d4d2 | 
[V:2] F6F2 | 
[V:3] B6B2 | 
[V:4] F6D2- | 
[V:5] B,,4B,,4 | 
[V:1] d4c4 | 
[V:2] F2G2A4 | 
[V:3] B4c4 | 
[V:4] D2G4^F2 | 
[V:5] z8 | 
[V:1] B2B2A2B2- | 
[V:2] D2G2F2D2- | 
[V:3] z2d3cBA | 
[V:4] G4z4 | 
[V:5] G,,4D,4 | 
[V:1] B2AGF2B2- | 
[V:2] D2C2D4- | 
[V:3] G4A2d2- | 
[V:4] z2C2F2G2 | 
[V:5] E,4D,2G,,2- | 
[V:1] BAG4^F2 | 
[V:2] D8 | 
[V:3] dcB2A4 | 
[V:4] D3EF4 | 
[V:5] G,,A,,B,,C,D,4 | 
[V:1] G4z4 | 
[V:2] D4z4 | 
[V:3] G4z4 | 
[V:4] D4z4 | 
[V:5] G,,4z4 | 
[V:1] B4B2B2 | 
[V:2] G4G2G2 | 
[V:3] d4d2d2 | 
[V:4] D4D2D2 | 
[V:5] G,,4G,,2G,,2 | 
[V:1] B4A4 | 
[V:2] G4F4 | 
[V:3] d4d4 | 
[V:4] D4F4 | 
[V:5] G,,4D,4 | 
[V:1] z8 | 
[V:2] F3GA2B2- | 
[V:3] d4c2d2- | 
[V:4] z8 | 
[V:5] z8 | 
[V:1] z8 | 
[V:2] B2A4G2 | 
[V:3] dcBAB4 | 
[V:4] z8 | 
[V:5] z8 | 
[V:1] z2A4A2 | 
[V:2] A4z4 | 
[V:3] A8 | 
[V:4] z2F4F2 | 
[V:5] z2D,4D,2 | 
[V:1] B2A2G2A2- | 
[V:2] z8 | 
[V:3] z8 | 
[V:4] G2A2B2c2- | 
[V:5] B,,2D,2G,2F,2 | 
[V:1] AGG4^F2 | 
[V:2] z8 | 
[V:3] z8 | 
[V:4] cBAGA4 | 
[V:5] _E,4D,4 | 
[V:1] G4z2B2 | 
[V:2] z4z2G2 | 
[V:3] z4z2d2 | 
[V:4] G4z2D2 | 
[V:5] G,,4z2G,,2 | 
[V:1] B2B2A4 | 
[V:2] G2G2F4 | 
[V:3] d2d2d4 | 
[V:4] D2D2F4 | 
[V:5] G,,2G,,2D,4 | 
[V:1] B2B2c2c2 | 
[V:2] D2D2E2E2 | 
[V:3] B2B2A2A2 | 
[V:4] F2F2E2E2 | 
[V:5] D,2D,2C,2C,2 | 
[V:1] d4c2B2- | 
[V:2] D3EF2G2- | 
[V:3] B4z2G2- | 
[V:4] F4z4 | 
[V:5] B,,4z4 | 
[V:1] BAGFG4 | 
[V:2] G2F4E2 | 
[V:3] G2A2B2c2 | 
[V:4] z8 | 
[V:5] z8 | 
[V:1] F4z4 | 
[V:2] F4z4 | 
[V:3] F4z4 | 
[V:4] z8 | 
[V:5] z8 | 
[V:1] A6A2 | 
[V:2] F6F2 | 
[V:3] d6d2 | 
[V:4] F6F2 | 
[V:5] D,6D,2 | 
[V:1] A4A4 | 
[V:2] F4F4 | 
[V:3] d2d2d4 | 
[V:4] F4F4 | 
[V:5] D,4D,4 | 
[V:1] B4A2B2- | 
[V:2] G4F2G2- | 
[V:3] z2d3cBA | 
[V:4] D4z2D2 | 
[V:5] G,,4z2G,,2- | 
[V:1] B2AGF2A2- | 
[V:2] G2FED4 | 
[V:3] G2d2A2d2- | 
[V:4] D3EFDd2 | 
[V:5] G,,A,,B,,C,D,2F,2 | 
[V:1] AGG4F2 | 
[V:2] G4A4 | 
[V:3] d2c2d4- | 
[V:4] B2c2A4 | 
[V:5] E,4D,4 | 
[V:1] G2B4AG | 
[V:2] B4G4 | 
[V:3] d4d4- | 
[V:4] G4B4 | 
[V:5] G,,8 | 
[V:1] ^F8 | 
[V:2] A8 | 
[V:3] d8 | 
[V:4] A8 | 
[V:5] D,8 | 
[V:1] G8- | 
[V:2] B4G2B2- | 
[V:3] B8- | 
[V:4] G8- | 
[V:5] G,,8- | 
[V:1] G8- | 
[V:2] BAGFG2FE | 
[V:3] B8- | 
[V:4] G8- | 
[V:5] G,,8- | 
[V:1] G8 |]  
[V:2] D8 |]  
[V:3] B8 |]  
[V:4] G8 |]  
[V:5] G,,8 |]  



